airbyte/airbyte-config/init/src/main/resources/icons/short.svg

<svg xmlns="http://www.w3.org/2000/svg" width="400" height="400"><g fill-rule="evenodd"><path fill="#fbfbfb" d="M174.414 1.35c-60.275 13.298-93.873 55.055-90.478 112.452 2.299 38.88 18.586 66.682 52.315 89.302 13.287 8.911 27.533 16.078 58.476 29.416 35.274 15.205 46.272 21.332 56.25 31.337 8.935 8.959 12.026 16.26 12.079 28.526.159 37.212-31.873 55.194-77.509 43.51-21.672-5.548-45.849-17.437-66.638-32.768-3.35-2.471-6.207-4.418-6.348-4.327-.534.344-33.623 60.312-33.441 60.607.385.622 10.719 7.401 17.364 11.391 21.81 13.093 40.343 21.001 62.044 26.475 11.334 2.86 9.139 2.729 45.861 2.729h33.101l5.749-1.214c59.493-12.564 90.564-51.153 90.547-112.458-.011-39.238-14.674-66.964-47.959-90.689-12.535-8.934-28.987-17.747-57.897-31.015-37.967-17.423-52.789-27.351-61.17-40.97-10.366-16.844-6.642-40.066 8.338-52.001 25.03-19.942 73.305-8.534 118.84 28.084 1.499 1.206 2.837 2.066 2.973 1.911.392-.446 31.605-60.546 31.605-60.855 0-.355-.205-.509-7.422-5.594-24.051-16.943-46.463-27.588-70.435-33.454L243.555.007l-31.641.025-31.641.025-5.859 1.293"/><path fill="#343c3c" d="M250.195 1.357c24.939 5.958 56.785 21.793 78.653 39.108.075.059-6.802 13.435-15.282 29.724a27006.707 27006.707 0 0 0-16.063 30.882l-.645 1.266-4.581-3.641c-61.725-49.064-126.994-48.511-131.142 1.11-2.068 24.735 13.83 40.253 65.623 64.057 34.997 16.084 52.434 25.861 66.992 37.561 32.167 25.852 44.965 60.109 39.235 105.021-6.294 49.331-37.461 81.517-89.626 92.555l-4.492.95 80.567.025L400 400V0l-77.637.025-77.636.025 5.468 1.307"/><path fill="#34d4ac" d="M0 200v200l85.254-.035 85.254-.036-4.297-.885c-19.259-3.97-38.772-11.163-57.227-21.096-9.812-5.281-29.05-17.226-29.864-18.543-.216-.349 33.239-60.801 33.603-60.72.13.028 2.945 2.05 6.256 4.492 70.878 52.27 144.323 46.768 144.077-10.794-.053-12.266-3.144-19.567-12.079-28.526-9.978-10.005-20.976-16.132-56.25-31.337-30.943-13.338-45.189-20.505-58.476-29.416-33.729-22.62-50.016-50.422-52.315-89.302-3.395-57.397 30.203-99.154 90.478-112.452l5.859-1.293L90.137.029 0 0v200"/><path fill="#9c9ca0" d="M171.875 74.414c-.949.967-1.637 1.758-1.53 1.758.108 0 .972-.791 1.921-1.758.948-.967 1.637-1.758 1.529-1.758-.107 0-.971.791-1.92 1.758"/><path fill="#8a8e92" d="M174.219 133.008c1.167 1.181 2.209 2.148 2.317 2.148.107 0-.76-.967-1.927-2.148-1.167-1.182-2.209-2.149-2.317-2.149-.107 0 .76.967 1.927 2.149m126.953 74.912c0 .059 1.362 1.421 3.027 3.027l3.028 2.92-2.92-3.027c-2.712-2.812-3.135-3.206-3.135-2.92m32.933 75.088c.003 1.289.076 1.769.162 1.067.087-.702.086-1.757-.004-2.344-.089-.587-.16-.012-.158 1.277m.011 6.445c0 1.611.069 2.271.153 1.465.084-.806.084-2.124 0-2.93-.084-.805-.153-.146-.153 1.465"/></g></svg>

<svg id="svg" version="1.1" xmlns="http://www.w3.org/2000/svg" xmlns:xlink="http://www.w3.org/1999/xlink" width="400" height="400" viewBox="0, 0, 400,400"><g id="svgg"><path id="path0" d="M174.414 1.350 C 114.139 14.648,80.541 56.405,83.936 113.802 C 86.235 152.682,102.522 180.484,136.251 203.104 C 149.538 212.015,163.784 219.182,194.727 232.520 C 230.001 247.725,240.999 253.852,250.977 263.857 C 259.912 272.816,263.003 280.117,263.056 292.383 C 263.215 329.595,231.183 347.577,185.547 335.893 C 163.875 330.345,139.698 318.456,118.909 303.125 C 115.559 300.654,112.702 298.707,112.561 298.798 C 112.027 299.142,78.938 359.110,79.120 359.405 C 79.505 360.027,89.839 366.806,96.484 370.796 C 118.294 383.889,136.827 391.797,158.528 397.271 C 169.862 400.131,167.667 400.000,204.389 400.000 L 237.490 400.000 243.239 398.786 C 302.732 386.222,333.803 347.633,333.786 286.328 C 333.775 247.090,319.112 219.364,285.827 195.639 C 273.292 186.705,256.840 177.892,227.930 164.624 C 189.963 147.201,175.141 137.273,166.760 123.654 C 156.394 106.810,160.118 83.588,175.098 71.653 C 200.128 51.711,248.403 63.119,293.938 99.737 C 295.437 100.943,296.775 101.803,296.911 101.648 C 297.303 101.202,328.516 41.102,328.516 40.793 C 328.516 40.438,328.311 40.284,321.094 35.199 C 297.043 18.256,274.631 7.611,250.659 1.745 L 243.555 0.007 211.914 0.032 L 180.273 0.057 174.414 1.350 " stroke="none" fill="#fbfbfb" fill-rule="evenodd"></path><path id="path1" d="M250.195 1.357 C 275.134 7.315,306.980 23.150,328.848 40.465 C 328.923 40.524,322.046 53.900,313.566 70.189 C 305.086 86.478,297.858 100.375,297.503 101.071 L 296.858 102.337 292.277 98.696 C 230.552 49.632,165.283 50.185,161.135 99.806 C 159.067 124.541,174.965 140.059,226.758 163.863 C 261.755 179.947,279.192 189.724,293.750 201.424 C 325.917 227.276,338.715 261.533,332.985 306.445 C 326.691 355.776,295.524 387.962,243.359 399.000 L 238.867 399.950 319.434 399.975 L 400.000 400.000 400.000 200.000 L 400.000 0.000 322.363 0.025 L 244.727 0.050 250.195 1.357 " stroke="none" fill="#343c3c" fill-rule="evenodd"></path><path id="path2" d="M0.000 200.000 L 0.000 400.000 85.254 399.965 L 170.508 399.929 166.211 399.044 C 146.952 395.074,127.439 387.881,108.984 377.948 C 99.172 372.667,79.934 360.722,79.120 359.405 C 78.904 359.056,112.359 298.604,112.723 298.685 C 112.853 298.713,115.668 300.735,118.979 303.177 C 189.857 355.447,263.302 349.945,263.056 292.383 C 263.003 280.117,259.912 272.816,250.977 263.857 C 240.999 253.852,230.001 247.725,194.727 232.520 C 163.784 219.182,149.538 212.015,136.251 203.104 C 102.522 180.484,86.235 152.682,83.936 113.802 C 80.541 56.405,114.139 14.648,174.414 1.350 L 180.273 0.057 90.137 0.029 L 0.000 0.000 0.000 200.000 " stroke="none" fill="#34d4ac" fill-rule="evenodd"></path><path id="path3" d="M171.875 74.414 C 170.926 75.381,170.238 76.172,170.345 76.172 C 170.453 76.172,171.317 75.381,172.266 74.414 C 173.214 73.447,173.903 72.656,173.795 72.656 C 173.688 72.656,172.824 73.447,171.875 74.414 " stroke="none" fill="#9c9ca0" fill-rule="evenodd"></path><path id="path4" d="M174.219 133.008 C 175.386 134.189,176.428 135.156,176.536 135.156 C 176.643 135.156,175.776 134.189,174.609 133.008 C 173.442 131.826,172.400 130.859,172.292 130.859 C 172.185 130.859,173.052 131.826,174.219 133.008 M301.172 207.920 C 301.172 207.979,302.534 209.341,304.199 210.947 L 307.227 213.867 304.307 210.840 C 301.595 208.028,301.172 207.634,301.172 207.920 M334.105 283.008 C 334.108 284.297,334.181 284.777,334.267 284.075 C 334.354 283.373,334.353 282.318,334.263 281.731 C 334.174 281.144,334.103 281.719,334.105 283.008 M334.116 289.453 C 334.116 291.064,334.185 291.724,334.269 290.918 C 334.353 290.112,334.353 288.794,334.269 287.988 C 334.185 287.183,334.116 287.842,334.116 289.453 " stroke="none" fill="#8a8e92" fill-rule="evenodd"></path></g></svg>
